actions/22/media-album-track.svg

<svg xmlns="http://www.w3.org/2000/svg" viewBox="0 0 22 22">
  <defs id="defs3051">
<style type="text/css" id="current-color-scheme">.ColorScheme-Text {color:#fcfcfc;}</style>
  </defs>
 <path 
     style="fill:currentColor;fill-opacity:1;stroke:none" 
     d="m 2,5 c 0,2 0,10 0,12 0,2 2,2 2,2 h 7 V 18 H 8 C 8,17.447715 7.5522847,17 7,17 6.4477153,17 6,17.447715 6,18 H 5 V 11 4 H 6 C 6,4.5522847 6.4477153,5 7,5 7.5522847,5 8,4.5522847 8,4 h 4 4 c 0,0.5522847 0.447715,1 1,1 0.552285,0 1,-0.4477153 1,-1 0,0 1,0 1,1 0,1 0,2 0,2 h 1 C 20,7 20,7 20,5 20,3 18,3 18,3 H 4 C 4,3 2,3 2,5 Z M 12,4 c -3.8659932,0 -7,3.1340068 -7,7 0.00314,3.477294 2.5583696,6.42512 6,6.921875 V 16.910156 C 8.1153379,16.422561 6.0028887,13.92558 6,11 6,7.6862915 8.6862915,5 12,5 c 1.704151,0.00263 3.326791,0.7297972 4.462891,2 h 1.279297 C 16.433907,5.1211237 14.289492,4.0007768 12,4 Z M 3,5 C 3,4 4,4 4,4 V 18 C 4,18 3,18 3,17 3,16 3,6 3,5 Z m 13,3 v 1 5.5 C 15.5818,14.1852 15.066,14 14.5,14 13.115,14 12,15.115 12,16.5 12,17.885 13.115,19 14.5,19 15.885,19 17,17.885 17,16.5 V 10 h 2 C 19,8.892 18.108,8 17,8 Z"
     class="ColorScheme-Text"
     />
</svg>

<svg xmlns="http://www.w3.org/2000/svg" viewBox="0 0 22 22">
  <defs id="defs3051">
    <style type="text/css" id="current-color-scheme">
      .ColorScheme-Text {
        color:#eff0f1;
      }
      </style>
  </defs>
 <path 
     style="fill:currentColor;fill-opacity:1;stroke:none" 
     d="M 2 3 L 2 19 L 3 19 L 11 19 L 11 18 L 8 18 A 1 1 0 0 0 7 17 A 1 1 0 0 0 6 18 L 5 18 L 5 11 L 5 4 L 6 4 A 1 1 0 0 0 7 5 A 1 1 0 0 0 8 4 L 12 4 L 16 4 A 1 1 0 0 0 17 5 A 1 1 0 0 0 18 4 L 19 4 L 19 7 L 20 7 L 20 3 L 3 3 L 2 3 z M 12 4 A 7 7 0 0 0 5 11 A 7 7 0 0 0 11 17.921875 L 11 16.910156 A 6 6 0 0 1 6 11 A 6 6 0 0 1 12 5 A 6 6 0 0 1 16.462891 7 L 17.742188 7 A 7 7 0 0 0 12 4 z M 3 4 L 4 4 L 4 18 L 3 18 L 3 4 z M 16 8 L 16 9 L 16 14.5 C 15.5818 14.1852 15.066 14 14.5 14 C 13.115 14 12 15.115 12 16.5 C 12 17.885 13.115 19 14.5 19 C 15.885 19 17 17.885 17 16.5 L 17 10 L 19 10 C 19 8.892 18.108 8 17 8 L 16 8 z "
     class="ColorScheme-Text"
     />
</svg>
